X:258
T:My Peggy is a Young Thing. RH.258
R:air
S:Rev.R.Harrison’s MS,c1815,Cumbria
O:England
A:Temple Sowerby,Cumbria
Z:vmp.Simon Wilson. Review PJH, 2008.
M:C
L:1/8
Q:2/4=45
K:G
G|”Lively”EAAB A2(ge)|(dB) (AG)F2(DE)|\
G>ABA GEDE|(G/F/G/A/) BA GEDG|!
” D in MS”EAAB A2GA|(BABd) e2ga|bage d>egB|A>GEG A3:|!
|:g|eaab a2ga|b2ag e2de|\
g>a (g/a/b) G>ABG|(g/f/g/a/) (g/a/b) G>ABG|!
Aa-ab a2g2|(e>de)g a2g>a|\
(b/a/g) (a/g/f) d>egB|A>GEG A3:|

